img/icon-reactjs.svg

<?xml version="1.0"?><svg xmlns="http://www.w3.org/2000/svg"  viewBox="0 0 30 30" width="90px" height="90px">    <path d="M 10.679688 4.1816406 C 10.068687 4.1816406 9.502 4.3184219 9 4.6074219 C 7.4311297 5.5132122 6.8339651 7.7205462 7.1503906 10.46875 C 4.6127006 11.568833 3 13.188667 3 15 C 3 16.811333 4.6127006 18.431167 7.1503906 19.53125 C 6.8341285 22.279346 7.4311297 24.486788 9 25.392578 C 9.501 25.681578 10.067687 25.818359 10.679688 25.818359 C 11.982314 25.818359 13.48785 25.164589 15 24.042969 C 16.512282 25.164589 18.01964 25.818359 19.322266 25.818359 C 19.933266 25.818359 20.499953 25.681578 21.001953 25.392578 C 22.570814 24.486793 23.167976 22.279432 22.851562 19.53125 C 25.388297 18.431178 27 16.81094 27 15 C 27 13.188667 25.387299 11.568833 22.849609 10.46875 C 23.165872 7.7206538 22.56887 5.5132122 21 4.6074219 C 20.499 4.3174219 19.932312 4.1816406 19.320312 4.1816406 C 18.017686 4.1816406 16.51215 4.8354109 15 5.9570312 C 13.487763 4.8354109 11.981863 4.1816406 10.679688 4.1816406 z M 10.679688 5.9316406 C 11.461321 5.9316406 12.49496 6.3472486 13.617188 7.1171875 C 12.95737 7.7398717 12.311153 8.4479321 11.689453 9.2363281 C 10.681079 9.3809166 9.7303472 9.5916908 8.8496094 9.8554688 C 8.8448793 9.7943902 8.8336776 9.7303008 8.8300781 9.6699219 C 8.7230781 7.8899219 9.114 6.5630469 9.875 6.1230469 C 10.1 5.9930469 10.362688 5.9316406 10.679688 5.9316406 z M 19.320312 5.9316406 C 19.636312 5.9316406 19.9 5.9930469 20.125 6.1230469 C 20.886 6.5620469 21.276922 7.8899219 21.169922 9.6699219 C 21.166295 9.7303008 21.155145 9.7943902 21.150391 9.8554688 C 20.2691 9.5915252 19.317669 9.3809265 18.308594 9.2363281 C 17.686902 8.4480417 17.042616 7.7397993 16.382812 7.1171875 C 17.504962 6.3473772 18.539083 5.9316406 19.320312 5.9316406 z M 15 8.2285156 C 15.27108 8.4752506 15.540266 8.7360345 15.8125 9.0214844 C 15.542718 9.012422 15.274373 9 15 9 C 14.726286 9 14.458598 9.0124652 14.189453 9.0214844 C 14.461446 8.7363308 14.729174 8.4750167 15 8.2285156 z M 15 10.75 C 15.828688 10.75 16.614128 10.796321 17.359375 10.876953 C 17.813861 11.494697 18.261774 12.147811 18.681641 12.875 C 19.084074 13.572033 19.439938 14.285488 19.753906 15 C 19.439896 15.714942 19.084316 16.429502 18.681641 17.126953 C 18.263078 17.852044 17.816279 18.500949 17.363281 19.117188 C 16.591711 19.201607 15.800219 19.25 15 19.25 C 14.171312 19.25 13.385872 19.203679 12.640625 19.123047 C 12.186139 18.505303 11.738226 17.854142 11.318359 17.126953 C 10.915684 16.429502 10.560194 15.714942 10.246094 15 C 10.559972 14.285488 10.915926 13.572033 11.318359 12.875 C 11.737083 12.149909 12.183612 11.499051 12.636719 10.882812 C 13.408289 10.798393 14.199781 10.75 15 10.75 z M 19.746094 11.291016 C 20.142841 11.386804 20.524253 11.490209 20.882812 11.605469 C 20.801579 11.97252 20.702235 12.346608 20.589844 12.724609 C 20.461164 12.483141 20.336375 12.240903 20.197266 12 C 20.054139 11.752196 19.895244 11.529558 19.746094 11.291016 z M 10.251953 11.292969 C 10.103305 11.530776 9.9454023 11.752991 9.8027344 12 C 9.6636666 12.240944 9.5387971 12.483106 9.4101562 12.724609 C 9.29751 12.345829 9.1965499 11.971295 9.1152344 11.603516 C 9.4803698 11.48815 9.86083 11.385986 10.251953 11.292969 z M 7.46875 12.246094 C 7.6794464 13.135714 7.9717297 14.057918 8.3476562 14.998047 C 7.9725263 15.935943 7.6814729 16.856453 7.4707031 17.744141 C 5.7292327 16.903203 4.75 15.856373 4.75 15 C 4.75 14.121 5.701875 13.119266 7.296875 12.322266 C 7.3513169 12.295031 7.4131225 12.272692 7.46875 12.246094 z M 22.529297 12.255859 C 24.270767 13.096797 25.25 14.143627 25.25 15 C 25.25 15.879 24.298125 16.880734 22.703125 17.677734 C 22.648683 17.704969 22.586877 17.727308 22.53125 17.753906 C 22.32043 16.863764 22.030541 15.940699 21.654297 15 C 22.028977 14.062913 22.318703 13.142804 22.529297 12.255859 z M 15 13 C 13.895 13 13 13.895 13 15 C 13 16.105 13.895 17 15 17 C 16.105 17 17 16.105 17 15 C 17 13.895 16.105 13 15 13 z M 9.4101562 17.275391 C 9.5388794 17.516948 9.6655262 17.759008 9.8046875 18 C 9.9476585 18.247625 10.104915 18.470608 10.253906 18.708984 C 9.857159 18.613196 9.4757466 18.509791 9.1171875 18.394531 C 9.1984813 18.02725 9.2976676 17.653633 9.4101562 17.275391 z M 20.589844 17.277344 C 20.702364 17.655759 20.803517 18.02905 20.884766 18.396484 C 20.51963 18.51185 20.13917 18.614014 19.748047 18.707031 C 19.896695 18.469224 20.054598 18.247009 20.197266 18 C 20.336044 17.759557 20.461449 17.518344 20.589844 17.277344 z M 8.8496094 20.144531 C 9.7309004 20.408475 10.682331 20.619073 11.691406 20.763672 C 12.313288 21.552345 12.957085 22.261935 13.617188 22.884766 C 12.495042 23.654481 11.461272 24.070312 10.679688 24.070312 C 10.363687 24.070312 10.1 24.006953 9.875 23.876953 C 9.114 23.437953 8.7230781 22.112031 8.8300781 20.332031 C 8.8337424 20.271023 8.8447938 20.206253 8.8496094 20.144531 z M 21.150391 20.144531 C 21.155182 20.206253 21.166285 20.271023 21.169922 20.332031 C 21.276922 22.112031 20.886 23.436953 20.125 23.876953 C 19.9 24.006953 19.637312 24.070313 19.320312 24.070312 C 18.538728 24.070312 17.504958 23.654609 16.382812 22.884766 C 17.042964 22.261863 17.688542 21.552454 18.310547 20.763672 C 19.318921 20.619083 20.269653 20.408309 21.150391 20.144531 z M 14.1875 20.978516 C 14.457282 20.987578 14.725627 21 15 21 C 15.274373 21 15.542718 20.987578 15.8125 20.978516 C 15.540266 21.263964 15.27108 21.524765 15 21.771484 C 14.72892 21.524749 14.459734 21.263966 14.1875 20.978516 z"/></svg>

<svg xmlns="http://www.w3.org/2000/svg" xmlns:xlink="http://www.w3.org/1999/xlink" viewBox="0,0,256,256" width="90px" height="90px" fill-rule="nonzero"><g fill="#339af0" fill-rule="nonzero" stroke="none" stroke-width="1" stroke-linecap="butt" stroke-linejoin="miter" stroke-miterlimit="10" stroke-dasharray="" stroke-dashoffset="0" font-family="none" font-weight="none" font-size="none" text-anchor="none" style="mix-blend-mode: normal"><g transform="scale(8.53333,8.53333)"><path d="M10.67969,4.18164c-0.611,0 -1.17769,0.13678 -1.67969,0.42578c-1.56887,0.90579 -2.16603,3.11312 -1.84961,5.86133c-2.53769,1.10008 -4.15039,2.71992 -4.15039,4.53125c0,1.81133 1.6127,3.43117 4.15039,4.53125c-0.31626,2.7481 0.28074,4.95554 1.84961,5.86133c0.501,0.289 1.06769,0.42578 1.67969,0.42578c1.30263,0 2.80816,-0.65377 4.32031,-1.77539c1.51228,1.12162 3.01964,1.77539 4.32227,1.77539c0.611,0 1.17769,-0.13678 1.67969,-0.42578c1.56886,-0.90579 2.16602,-3.11315 1.84961,-5.86133c2.53674,-1.10007 4.14844,-2.72031 4.14844,-4.53125c0,-1.81133 -1.6127,-3.43117 -4.15039,-4.53125c0.31626,-2.7481 -0.28074,-4.95554 -1.84961,-5.86133c-0.501,-0.29 -1.06769,-0.42578 -1.67969,-0.42578c-1.30263,0 -2.80816,0.65377 -4.32031,1.77539c-1.51224,-1.12162 -3.01814,-1.77539 -4.32031,-1.77539zM10.67969,5.93164c0.78163,0 1.81527,0.41561 2.9375,1.18555c-0.65982,0.62268 -1.30604,1.33074 -1.92774,2.11914c-1.00837,0.14459 -1.95911,0.35536 -2.83984,0.61914c-0.00473,-0.06108 -0.01593,-0.12517 -0.01953,-0.18555c-0.107,-1.78 0.28392,-3.10688 1.04492,-3.54687c0.225,-0.13 0.48769,-0.19141 0.80469,-0.19141zM19.32031,5.93164c0.316,0 0.57969,0.06141 0.80469,0.19141c0.761,0.439 1.15192,1.76687 1.04492,3.54688c-0.00363,0.06038 -0.01478,0.12447 -0.01953,0.18555c-0.88129,-0.26394 -1.83272,-0.47454 -2.8418,-0.61914c-0.62169,-0.78829 -1.26598,-1.49653 -1.92578,-2.11914c1.12215,-0.76981 2.15627,-1.18555 2.9375,-1.18555zM15,8.22852c0.27108,0.24674 0.54027,0.50752 0.8125,0.79297c-0.26978,-0.00906 -0.53813,-0.02148 -0.8125,-0.02148c-0.27371,0 -0.5414,0.01247 -0.81055,0.02148c0.27199,-0.28515 0.53972,-0.54647 0.81055,-0.79297zM15,10.75c0.82869,0 1.61413,0.04632 2.35938,0.12695c0.45449,0.61774 0.9024,1.27086 1.32227,1.99805c0.40243,0.69703 0.7583,1.41049 1.07227,2.125c-0.31401,0.71494 -0.66959,1.4295 -1.07227,2.12695c-0.41856,0.72509 -0.86536,1.374 -1.31836,1.99023c-0.77157,0.08442 -1.56306,0.13281 -2.36328,0.13281c-0.82869,0 -1.61413,-0.04632 -2.35937,-0.12695c-0.45449,-0.61774 -0.9024,-1.26891 -1.32227,-1.99609c-0.40267,-0.69745 -0.75816,-1.41201 -1.07226,-2.12695c0.31388,-0.71451 0.66983,-1.42797 1.07226,-2.125c0.41872,-0.72509 0.86525,-1.37595 1.31836,-1.99219c0.77157,-0.08442 1.56306,-0.13281 2.36328,-0.13281zM19.74609,11.29102c0.39675,0.09579 0.77816,0.19919 1.13672,0.31445c-0.08123,0.36705 -0.18058,0.74114 -0.29297,1.11914c-0.12868,-0.24147 -0.25347,-0.48371 -0.39258,-0.72461c-0.14313,-0.2478 -0.30202,-0.47044 -0.45117,-0.70898zM10.25195,11.29297c-0.14865,0.23781 -0.30655,0.46002 -0.44922,0.70703c-0.13907,0.24094 -0.26394,0.48311 -0.39258,0.72461c-0.11265,-0.37878 -0.21361,-0.75331 -0.29492,-1.12109c0.36514,-0.11537 0.7456,-0.21753 1.13672,-0.31055zM7.46875,12.24609c0.2107,0.88962 0.50298,1.81182 0.87891,2.75195c-0.37513,0.9379 -0.66618,1.85841 -0.87695,2.74609c-1.74147,-0.84094 -2.7207,-1.88777 -2.7207,-2.74414c0,-0.879 0.95188,-1.88073 2.54688,-2.67773c0.05444,-0.02724 0.11625,-0.04957 0.17188,-0.07617zM22.5293,12.25586c1.74147,0.84094 2.7207,1.88777 2.7207,2.74414c0,0.879 -0.95188,1.88073 -2.54687,2.67773c-0.05444,0.02723 -0.11625,0.04957 -0.17187,0.07617c-0.21082,-0.89014 -0.50071,-1.81321 -0.87695,-2.75391c0.37468,-0.93709 0.66441,-1.8572 0.875,-2.74414zM15,13c-1.105,0 -2,0.895 -2,2c0,1.105 0.895,2 2,2c1.105,0 2,-0.895 2,-2c0,-1.105 -0.895,-2 -2,-2zM9.41016,17.27539c0.12872,0.24156 0.25537,0.48362 0.39453,0.72461c0.14297,0.24762 0.30023,0.47061 0.44922,0.70898c-0.39675,-0.09579 -0.77816,-0.19919 -1.13672,-0.31445c0.08129,-0.36728 0.18048,-0.7409 0.29297,-1.11914zM20.58984,17.27734c0.11252,0.37842 0.21367,0.75171 0.29492,1.11914c-0.36514,0.11537 -0.7456,0.21753 -1.13672,0.31055c0.14865,-0.23781 0.30655,-0.46002 0.44922,-0.70703c0.13878,-0.24044 0.26418,-0.48166 0.39258,-0.72266zM8.84961,20.14453c0.88129,0.26394 1.83272,0.47454 2.8418,0.61914c0.62188,0.78867 1.26568,1.49826 1.92578,2.12109c-1.12215,0.76972 -2.15592,1.18555 -2.9375,1.18555c-0.316,0 -0.57969,-0.06336 -0.80469,-0.19336c-0.761,-0.439 -1.15192,-1.76492 -1.04492,-3.54492c0.00366,-0.06101 0.01472,-0.12578 0.01953,-0.1875zM21.15039,20.14453c0.00479,0.06172 0.01589,0.12649 0.01953,0.1875c0.107,1.78 -0.28392,3.10492 -1.04492,3.54492c-0.225,0.13 -0.48769,0.19336 -0.80469,0.19336c-0.78158,0 -1.81535,-0.4157 -2.9375,-1.18555c0.66015,-0.6229 1.30573,-1.33231 1.92773,-2.12109c1.00837,-0.14459 1.95911,-0.35536 2.83984,-0.61914zM14.1875,20.97852c0.26978,0.00906 0.53813,0.02148 0.8125,0.02148c0.27437,0 0.54272,-0.01242 0.8125,-0.02148c-0.27223,0.28545 -0.54142,0.54625 -0.8125,0.79297c-0.27108,-0.24674 -0.54027,-0.50752 -0.8125,-0.79297z"></path></g></g></svg>
